svg/part/body_fill.svg

<?xml version="1.0" encoding="UTF-8"?>
<svg width="24px" height="24px" viewBox="0 0 24 24" version="1.1" xmlns="http://www.w3.org/2000/svg" xmlns:xlink="http://www.w3.org/1999/xlink">
    <title>body_fill</title>
    <g id="Icon" stroke="none" stroke-width="1" fill="none" fill-rule="evenodd">
        <g id="Part" transform="translate(-48.000000, -48.000000)">
            <g id="body_fill" transform="translate(48.000000, 48.000000)">
                <path d="M24,0 L24,24 L0,24 L0,0 L24,0 Z M12.5935,23.2578 L12.5819,23.2595 L12.5109,23.295 L12.4919,23.2987 L12.4767,23.295 L12.4057,23.2595 C12.3958,23.2564 12.387,23.259 12.3821,23.2649 L12.378,23.2758 L12.3609,23.7031 L12.3659,23.7235 L12.3769,23.7357 L12.4805,23.8097 L12.4953,23.8136 L12.5071,23.8097 L12.6107,23.7357 L12.6233,23.7197 L12.6267,23.7031 L12.6096,23.2758 C12.6076,23.2657 12.601,23.2593 12.5935,23.2578 Z M12.8584,23.1453 L12.8445,23.1473 L12.6598,23.2397 L12.6499,23.2499 L12.6472,23.2611 L12.6651,23.6906 L12.6699,23.7034 L12.6784,23.7105 L12.8793,23.8032 C12.8914,23.8069 12.9022,23.803 12.9078,23.7952 L12.9118,23.7812 L12.8777,23.1665 C12.8753,23.1546 12.8674,23.147 12.8584,23.1453 Z M12.143,23.1473 C12.1332,23.1424 12.1222,23.1453 12.1156,23.1526 L12.1099,23.1665 L12.0758,23.7812 C12.0751,23.7927 12.0828,23.8019 12.0926,23.8046 L12.1083,23.8032 L12.3092,23.7105 L12.3186,23.7024 L12.3225,23.6906 L12.3404,23.2611 L12.3372,23.2485 L12.3278,23.2397 L12.143,23.1473 Z" id="MingCute" fill-rule="nonzero"></path>
                <path d="M15.8224,2 C17.0301875,2 17.867124,3.01977608 17.8701698,4.09656507 L17.8658,4.23726 C17.7085,6.6526 18.3345,9.15887 19.4167,11.5939 C20.8448,14.807 19.8026,17.9588 18.9073,19.7698 C18.1516,21.2984 16.5616,22 15.0465,22 L8.95652,22 C7.44145,22 5.85143,21.2984 5.09576,19.7698 C4.20049,17.9588 3.1583,14.807 4.58638,11.5939 C5.60494,9.30210706 6.21937433,6.94720879 6.15695257,4.66440737 L6.13725,4.23726 C6.06385,3.11038 6.92037,2 8.18064,2 L15.8224,2 Z M5.95127,14.0077 C5.68069,15.8585 6.26652,17.6251 6.88864,18.8835 C7.20446133,19.5223667 7.90137636,19.9412778 8.76823935,19.9942932 L8.95652,20 L10.9683,20 C10.8439,18.6131 10.4451,17.2201 9.66815,16.0547 C9.17062,15.3085 8.27467,14.7791 7.3858,14.4313 C7.258384,14.38144 7.1338088,14.336416 7.0141836,14.2959208 L6.6722672,14.1877144 L6.6722672,14.1877144 L6.372706,14.1048376 L6.372706,14.1048376 L6.03046345,14.0239834 C6.0008947,14.017705 5.974409,14.01229 5.95127,14.0077 Z M18.0517,14.0072 L17.8754288,14.0447208 L17.8754288,14.0447208 L17.6307864,14.1040384 C17.585026,14.115844 17.53695,14.128635 17.486825,14.14245 L17.1636198,14.2379368 C16.991856,14.292133 16.80645,14.35624 16.6146,14.4313 C15.7257,14.7791 14.8298,15.3084 14.3323,16.0547 C13.6150692,17.1304538 13.2200917,18.4001391 13.0657259,19.6799442 L13.0321,20 L15.0465,20 C16.0002,20 16.776,19.568 17.1144,18.8835 C17.7366,17.6249 18.3225,15.8582 18.0517,14.0072 Z M12.0001,9 C11.4478,9 11.0001,9.44772 11.0001,10 C11.0001,10.5523 11.4478,11 12.0001,11 C12.5524,11 13.0001,10.5523 13.0001,10 C13.0001,9.44772 12.5524,9 12.0001,9 Z" id="形状" fill="#09244B"></path>
            </g>
        </g>
    </g>
</svg>

<svg xmlns="http://www.w3.org/2000/svg" width="24" height="24"><g fill="none" fill-rule="evenodd"><path d="M24 0v24H0V0h24ZM12.594 23.258l-.012.002-.071.035-.02.004-.014-.004-.071-.036c-.01-.003-.019 0-.024.006l-.004.01-.017.428.005.02.01.013.104.074.015.004.012-.004.104-.074.012-.016.004-.017-.017-.427c-.002-.01-.009-.017-.016-.018Zm.264-.113-.014.002-.184.093-.01.01-.003.011.018.43.005.012.008.008.201.092c.012.004.023 0 .029-.008l.004-.014-.034-.614c-.003-.012-.01-.02-.02-.022Zm-.715.002a.023.023 0 0 0-.027.006l-.006.014-.034.614c0 .012.007.02.017.024l.015-.002.201-.093.01-.008.003-.011.018-.43-.003-.012-.01-.01-.184-.092Z"/><path fill="#09244B" d="M15.822 2c1.208 0 2.045 1.02 2.048 2.097l-.004.14c-.157 2.416.468 4.922 1.55 7.357 1.429 3.213.387 6.365-.509 8.176-.755 1.528-2.345 2.23-3.86 2.23h-6.09c-1.516 0-3.106-.702-3.861-2.23-.896-1.811-1.938-4.963-.51-8.176 1.019-2.292 1.633-4.647 1.571-6.93l-.02-.427C6.064 3.11 6.92 2 8.181 2h7.641Zm-9.87 12.008c-.271 1.85.315 3.617.937 4.876.315.638 1.012 1.057 1.88 1.11l.188.006h2.011c-.124-1.387-.523-2.78-1.3-3.945-.497-.746-1.393-1.276-2.282-1.624a8.5 8.5 0 0 0-.372-.135l-.342-.108-.3-.083-.342-.081a6.05 6.05 0 0 0-.079-.016Zm12.1 0-.177.037-.244.059a9.06 9.06 0 0 0-.144.038l-.323.096a8.676 8.676 0 0 0-.55.193c-.888.348-1.784.877-2.282 1.624-.717 1.075-1.112 2.345-1.266 3.625l-.034.32h2.015c.953 0 1.729-.432 2.067-1.116.623-1.26 1.209-3.026.938-4.877ZM12 9a1 1 0 1 0 0 2 1 1 0 0 0 0-2Z"/></g></svg>
